X: 4429
T: "la CHARMEUSE" VALSE
C: Jules Renardi
R: Waltz
%R: waltz
B: James Kerr "Merry Melodies" v.4 p.48 #429
Z: 2016 John Chambers <jc:trillian.mit.edu>
M: 3/4
L: 1/4
K: F
|:\
A3 | F2D | C3 | F2G | A^GA |\
[1 B2A | D3- | Dzz |\
B3 | A2G | (d3 | c3) |\
AGF | E2F | G3- | Gzz :|
[2 _edc | c3 | B3 |\
d^cd | (e2f) | f3 | cFB |\
ACB | (A2G) | F3- | Fzz H|:\
c>cc- | cde | f>ff- | fga |
bzc- | c(=B/c/B/c/) | azc- | ccc |\
d>dd | e>ee | f>ff | g/g/g^g |\
a>fc/A/ | d/d/dc | Fzc | fzz :|

%%sep 1 1 500
%%sep 1 1 500

